X: 336
T: Sirba Ciobanului (Shepherd's Sirba)
R: sirba
O: Rumania
Q: 1/4=126
B: German Goldenshteyn "Shpilt klezmorimlach klingen zoln di gesalach" New York 2003 v.3 #36
Z: 2012 John Chambers <jc:trillian.mit.edu>
M: 2/4
L: 1/8
K: C
|:\
g2 (3c'ba | (3g^fg (Ta>f) | g2 (3c'ba | (3g^fg (Ta>g) |\
d2 (3(g=fe) | (3d^cd (Te>d) | (3gfe (3dcB | c>e gz |
g2 (3c'ba | (3g^fg (Ta>f) | g2 (3c'ba | (3g^fg (Ta>g) |\
d2 (3(gfe) | (3d^cd (Te>d) | (Te>d) (3fed |[1 cz "^>"g2 :|[2 cz "^>"e2 ||["Fine" cz c'2 ||
|:\
(3bc'a (3^gae | (3^dec (3BcA | (3efd (3^cdA | (3^GAF (3EFD |\
E>^F ^G>A | B>c d>e | (Tc>B) (3dcB | A>c e2 |
(3bc'a (3^gae | (3^dec (3BcA | (3efd (3^cdA | (3^GAF (3EFD |\
(3E^F^G (3ABc | (3fed (3dcB | (Tc>B) (3dcB |[1 A2z2 :|[2 A([ec] [fd][^f^d]) ||
|:\
([g3e3]c') | d'>c' b>a | g4- | g>g f>e |\
d3 a | g3 f | (~ed) (ef) | g(e f^f) |
(g3 c') | ~d'>c' ~b>a | g4- | g>g f>e |\
d>^c d>c | d>a g>f | (~e>d) (3(fed) |[1 c(e f^f) :|[2 cz B2 |]
